icons-rebrand/svg/secure-call-shield-regular.svg

<svg xmlns="http://www.w3.org/2000/svg" width="32" height="32" viewBox="0 0 32 32" fill="none"><path d="M21.7301 18.773C22.59 18.7726 23.4169 19.1043 24.0381 19.699L26.7911 22.452C27.4039 23.0662 27.7481 23.8984 27.7481 24.766C27.7481 25.6336 27.4039 26.4658 26.7911 27.08L25.3191 28.552C24.2509 29.4202 22.8922 29.8493 21.5191 29.752C18.3501 29.752 13.7611 28.152 8.8061 23.193C1.0791 15.465 1.5001 8.625 3.4471 6.68L4.9191 5.209C5.53343 4.59609 6.3658 4.25187 7.2336 4.25187C8.10139 4.25187 8.93376 4.59609 9.5481 5.209L12.3001 7.962C12.9109 8.57361 13.2539 9.40264 13.2539 10.267C13.2539 11.1314 12.9109 11.9604 12.3001 12.572L11.9211 12.945C11.5031 13.356 10.8481 14.001 10.5351 14.311C10.5707 16.1966 11.3355 17.9951 12.6689 19.3288C14.0022 20.6626 15.8005 21.4279 17.6861 21.464C18.1601 20.986 19.4231 19.703 19.4231 19.703C20.0432 19.1068 20.8699 18.7736 21.7301 18.773ZM24.2591 27.491L25.7301 26.019C25.8946 25.8545 26.0252 25.6591 26.1142 25.4441C26.2033 25.2291 26.2491 24.9987 26.2491 24.766C26.2491 24.5333 26.2033 24.3029 26.1142 24.0879C26.0252 23.8729 25.8946 23.6775 25.7301 23.513L22.9771 20.76C22.6421 20.4394 22.1963 20.2605 21.7326 20.2605C21.2689 20.2605 20.8231 20.4394 20.4881 20.76C20.4881 20.76 19.0141 22.26 18.6511 22.622C17.7851 23.483 13.9071 22.686 11.6101 20.389C10.5129 19.2583 9.72139 17.867 9.3101 16.346C9.1621 15.806 8.7321 13.997 9.3801 13.346C9.7441 12.982 11.2481 11.504 11.2481 11.504C11.5769 11.1741 11.7616 10.7273 11.7616 10.2615C11.7616 9.7957 11.5769 9.3489 11.2481 9.019L8.4871 6.269C8.15405 5.93729 7.70315 5.75105 7.2331 5.75105C6.76304 5.75105 6.31214 5.93729 5.9791 6.269L4.5081 7.741C3.1791 9.07 2.8341 15.1 9.8671 22.133C16.9001 29.166 22.9281 28.821 24.2591 27.491Z M23.5001 14.25C23.3033 14.2499 23.1098 14.2003 22.9371 14.106C21.4933 13.2756 20.2935 12.0799 19.4581 10.639C18.6394 9.21856 18.2226 7.6022 18.2521 5.963V5.147C18.2485 4.8802 18.3176 4.61747 18.4521 4.387C18.5848 4.15781 18.7746 3.96694 19.0031 3.833L21.9331 2.16C22.4125 1.89652 22.9506 1.75837 23.4976 1.75837C24.0446 1.75837 24.5827 1.89652 25.0621 2.16L27.9801 3.828C28.2136 3.96344 28.4077 4.15751 28.5431 4.391C28.6782 4.62375 28.7474 4.88891 28.7431 5.158V5.978C28.7707 7.61223 28.3539 9.22326 27.5371 10.639C26.7073 12.0752 25.5153 13.2686 24.0801 14.1C23.9026 14.1982 23.703 14.2498 23.5001 14.25ZM23.5001 3.25C23.2099 3.24975 22.9246 3.32376 22.6711 3.465L19.7601 5.13L19.7521 5.978C19.7255 7.34966 20.0737 8.70257 20.7591 9.891C21.4235 11.0418 22.3659 12.0076 23.5001 12.7C24.6334 12.0081 25.5754 11.0434 26.2401 9.894C26.924 8.70968 27.2721 7.36136 27.2471 5.994V5.147L24.3241 3.463C24.072 3.32303 23.7884 3.24972 23.5001 3.25Z"/></svg>

<svg width="32" height="32" fill="none" xmlns="http://www.w3.org/2000/svg"><path fill-rule="evenodd" clip-rule="evenodd" d="M21.7301 18.773a3.3353 3.3353 0 0 1 2.308.926l2.753 2.753a3.2763 3.2763 0 0 1 0 4.628l-1.472 1.472a5.4178 5.4178 0 0 1-3.8 1.2c-3.169 0-7.758-1.6-12.713-6.559-7.727-7.728-7.306-14.568-5.359-16.513l1.472-1.471a3.277 3.277 0 0 1 4.629 0l2.752 2.753a3.2619 3.2619 0 0 1 0 4.61l-.379.373c-.418.411-1.073 1.056-1.386 1.366a7.2918 7.2918 0 0 0 7.151 7.153c.474-.478 1.737-1.761 1.737-1.761a3.332 3.332 0 0 1 2.307-.93Zm2.529 8.718 1.471-1.472a1.7713 1.7713 0 0 0 .519-1.253 1.771 1.771 0 0 0-.519-1.253l-2.753-2.753a1.7999 1.7999 0 0 0-2.489 0s-1.474 1.5-1.837 1.862c-.866.861-4.744.064-7.041-2.233a9.287 9.287 0 0 1-2.3-4.043c-.148-.54-.578-2.349.07-3 .364-.364 1.868-1.842 1.868-1.842a1.7602 1.7602 0 0 0 0-2.485l-2.761-2.75a1.777 1.777 0 0 0-2.508 0l-1.471 1.472c-1.329 1.329-1.674 7.359 5.359 14.392 7.033 7.033 13.061 6.688 14.392 5.358Z" fill="#0F0F0F"/><path d="M23.5002 14.25a1.176 1.176 0 0 1-.563-.144 9.4913 9.4913 0 0 1-3.479-3.467 9.0381 9.0381 0 0 1-1.206-4.676v-.816a1.4684 1.4684 0 0 1 .2-.76c.1327-.2292.3225-.42.551-.554l2.93-1.673a3.2481 3.2481 0 0 1 3.129 0l2.918 1.668c.2335.1354.4276.3295.563.563.1351.2328.2043.498.2.767v.82a9.022 9.022 0 0 1-1.206 4.661 9.4816 9.4816 0 0 1-3.457 3.461 1.2007 1.2007 0 0 1-.58.15Zm0-11a1.7 1.7 0 0 0-.829.215l-2.911 1.665-.008.848a7.5398 7.5398 0 0 0 1.007 3.913 7.9455 7.9455 0 0 0 2.741 2.809 7.9516 7.9516 0 0 0 2.74-2.806 7.5238 7.5238 0 0 0 1.007-3.9v-.847l-2.923-1.684a1.694 1.694 0 0 0-.824-.213Z" fill="#0F0F0F"/></svg>
